X: 39514
T: Taureen Derby
R: polka
M: 2/4
K: Edorian
|:A|BE FE|BE FE|D>E FA|DE FA|
BE FE|BE FE|D>E FA|FE E:|
|:B|e2 dB|ef/e/ dB|AF dF|AB/c/ d2|
ef/e/ dB|ef/e/ dB|AF dF|FE E:|

